!!!COM: Bach, Johann Sebastian
!!!OPR: Joh. Seb. Bachs vierstimmige Choralgesänge
!!!XEN: Four-part Chorales
!!!OTL: Chorale 157. Sei gegrüsset, Jesu gütig
!!!SCT: BWV 410
!!!SCA: Thematisch-systematisches Verzeichnis der musikalischen Werke Johann Sebastian Bach: Bach-Werke-Verzeichnis (Schmieder)
!!!YOR: Bach Gesellschaft Edition xxxix
!!!ENC: Steven Rasmussen
!!!CDT: 1685/3//-1750/7/28/
!!!OCY: Deutschland
!!!YEC: Copyright (c) 1994, 2000 Center for Computer Assisted Research in the Humanities
!!!YEM: Rights to all derivative editions reserved
!!!YEN: United States of America
**kern	**kern	**kern	**kern	**silbe
*I:[BASSO]	*I:[TENORE]	*I:[ALTO]	*I:[SOPRANO]	*I:[SOPRANO]
*clefF4	*clefGv2	*clefG2	*clefG2	*
*k[b-e-]	*k[b-e-]	*k[b-e-]	*k[b-e-]	*
*g:	*g:	*g:	*g:	*
*M4/4	*M4/4	*M4/4	*M4/4	*
=1-	=1-	=1-	=1-	=1-
4G	4B-	4d	4g	Sei
4F#	4A	4d	4a	ge-
4.G	8AL	4d	4b-	-grü-
.	16GL	.	.	.
.	16F#JJ	.	.	.
.	4G	4d	4b-	-sset,
8Fn	.	.	.	.
=2	=2	=2	=2	=2
4E-	8GL	8gL	4cc	Je-
.	8AJ	8f#J	.	.
8DL	8B-L	4g	4b-	-su
8CJ	8GJ	.	.	.
4D	4d	4g	4a	gü-
4D;	4d;	4f#;	4a;	-tig,
=3	=3	=3	=3	=3
4G	4d	4g	4b-	ü-
4A	4c	4f	4cc	-ber
4.B-	8cL	4f	4dd	al-
.	16B-L	.	.	.
.	16AJJ	.	.	.
.	4B-	4f	4dd	-les
8A	.	.	.	.
=4	=4	=4	=4	=4
4G	4B-	8e-L	4ee-	Mass
.	.	8fJ	.	.
4E-	4B-	4g	8ddL	sanft-
.	.	.	8ccJ	.
4F	4B-	2f	2cc	-mü-
4FF	4A	.	.	.
=5	=5	=5	=5	=5
2BB-;	2d;	2f;	2b-;	-tig!
4B-	4B-	4f	4dd	Ach
4A	4c	4f	4cc	wie
=6	=6	=6	=6	=6
8B-L	4c	4f	4dd	bist
8AJ	.	.	.	.
8GL	4B-	4b-	4dd	du
8FJ	.	.	.	.
8E-L	8gL	8b-L	4cc	so
8CJ	8e-J	8aJ	.	.
8DL	4f	4b-	4b-	zer-
8BB-J	.	.	.	.
=7	=7	=7	=7	=7
4F	4f	4b-	4cc	-schmi-
4FF;	4f;	4a;	4cc;	-ssen,
4F	4f	4a	4cc	und
4BBn	4f	4g	4dd	dein
=8	=8	=8	=8	=8
8CL	8e-L	4g	4ee-	gan-
8DJ	8dJ	.	.	.
8E-L	4c	4g	4ee-	-zer
8FJ	.	.	.	.
4G	4Bn	8gL	4dd	Leib
.	.	8fJ	.	.
8A-L	4c	4e-	8ccL	zer-
8GJ	.	.	8ddJ	.
=9	=9	=9	=9	=9
4F	4c	4a-	2dd	-ris-
4G	4Bn	8gL	.	.
.	.	8fJ	.	.
2C;	2G;	2e-;	2cc;	-sen!
=10	=10	=10	=10	=10
4c	4c	4e-	4g	Lass
4F#	4c	4d	4a	mich
4G	4B-	8dL	4b-	dei-
.	.	8e-J	.	.
4D	4B-	4f	4b-	-ne
=11	=11	=11	=11	=11
4E-	4B-	4g	4cc	Lieb'
4F	4A	4f	4cc	er-
4BB-	4B-	4f	4dd	-er-
4BB-;	4B-;	4f;	4dd;	-ben
=12	=12	=12	=12	=12
4FF#	8AL	4d	4dd	und
.	8cJ	.	.	.
4GG	8cL	4g	4dd	da-
.	8B-J	.	.	.
4C	8B-L	(8g	4ee-	-rin-
.	16A-L	4cc)	.	.
.	16GJJ	.	.	.
4D	4F	.	4dd	-nen
.	.	8bn	.	.
=13	=13	=13	=13	=13
4E-	8GL	8ccL	4cc	se-
.	8AJ	8f#J	.	.
8DL	8B-L	4g	8b-L	-lig
8CJ	8e-J	.	8aJ	.
4D	4.d	4g	2a	ster-
4DD	.	4f#	.	.
.	8c	.	.	.
=14	=14	=14	=14	=14
1GG;	1Bn;	1d;	1g;	-ben!
==|!	==|!	==|!	==|!	==|!
*-	*-	*-	*-	*-
!!!RWG: Key is interpreted using the Humdrum key tool.
!!!URL-pdf: https://s9.imslp.org/files/imglnks/usimg/6/6b/IMSLP24489-PMLP09471-CCARH_Bach_Chorales.pdf#page=109 Musedata edition
!!!URL-pdf: https://s9.imslp.org/files/imglnks/usimg/7/7a/IMSLP04155-Bach_-_BGA_253-438.pdf#page=86 	Bach-Gesellschaft Ausgabe, Band 39 (pp.175-276) Leipzig: Breitkopf und Härtel, 1892. Plate B.W. XXXIX.
!!!END: 1994/07/29
!!!EMD: Converted from MuseData to Humdrum Dec 19, 2000, by Andreas Kornstaedt using muse2kern.
!!!EED: Craig Stuart Sapp
!!!EEV: 2024/03/31
!!!filter-keyboard: extract -i kern | satb2gs
!!!title: @{OTL} (@{SCT})
